X:1
T:Nan's Waltz
C:Traditional
M:3/4
L:1/4
Q:1/4=132
K:D
A|A3/2F/2E|D3/2E/2F|G3/2F/2E|D2D|F3/2A/2B|A/2d3/2A|F3-|F2A|
A3/2F/2E|D3/2E/2F|G3/2F/2E|D2D|F3/2A/2d|A/2F3/2E|D3-|D2|]
